svgs/hue.svg

<svg width="192" height="192" viewBox="0 0 192 192" fill="none" xmlns="http://www.w3.org/2000/svg">
<path d="M95.9997 20C119.12 20 137.999 39.9999 137.999 59.0398C137.999 60.7197 137.68 62.3197 137.519 63.9197C137.359 65.4397 137.04 66.7197 136.719 68.1597C130.16 70.8797 116.32 73.9997 95.9997 73.9997C75.6799 73.9997 61.8399 70.8797 55.28 68.0797C54.96 66.6397 54.72 65.3597 54.48 63.8397C54.32 62.2397 54 60.7197 54 58.9598C54 39.9999 72.8799 20 95.9997 20Z" stroke="black" stroke-width="8" stroke-linejoin="round"/>
<path d="M77.9795 141.2C84.2194 141.76 91.0994 142 95.9794 142C100.859 142 107.739 141.76 113.979 141.2L110.939 159.84C110.779 161.12 110.139 162.4 109.099 163.28L106.299 165.84C106.139 166 105.899 166.16 105.739 166.4L102.779 169.92C101.739 171.2 99.9794 172 98.1394 172H93.7394C91.8994 172 90.1394 171.2 89.0194 169.84L86.0594 166.32C85.8994 166.16 85.7395 165.92 85.4995 165.76L82.6995 163.2C81.7395 162.32 81.0195 161.04 80.8595 159.76L77.9795 141.2Z" stroke="black" stroke-width="8" stroke-linejoin="round"/>
<path d="M57.4692 79.2802C68.7492 82.8801 85.309 84.0001 96.029 84.0001C106.749 84.0001 123.309 82.8801 134.589 79.2802C130.029 91.3601 122.029 96.72 120.109 108C119.229 112.88 118.589 119.76 119.069 124.8C119.389 128 116.909 130.8 113.709 131.12C108.509 131.68 102.669 132 96.029 132C89.389 132 83.5491 131.68 78.3491 131.12C75.1491 130.8 72.7491 128 72.9891 124.8C73.4691 119.76 72.7491 112.88 71.9491 108C70.0292 96.72 62.1092 91.3601 57.4692 79.2802Z" stroke="black" stroke-width="8" stroke-linejoin="round"/>
</svg>

<svg width="192" height="192" viewBox="0 0 192 192" fill="none" xmlns="http://www.w3.org/2000/svg"><path d="M96 20c23.12 0 41.999 20 41.999 39.04 0 1.68-.319 3.28-.48 4.88-.16 1.52-.479 2.8-.8 4.24C130.16 70.88 116.32 74 95.999 74c-20.32 0-34.16-3.12-40.719-5.92a66.42 66.42 0 0 1-.8-4.24c-.16-1.6-.48-3.12-.48-4.88C54 40 72.88 20 96 20ZM77.98 141.2c6.24.56 13.12.8 18 .8 4.879 0 11.759-.24 17.999-.8l-3.04 18.64c-.16 1.28-.8 2.56-1.84 3.44l-2.8 2.56c-.16.16-.4.32-.56.56l-2.96 3.52c-1.04 1.28-2.8 2.08-4.64 2.08h-4.4c-1.84 0-3.6-.8-4.72-2.16l-2.96-3.52c-.16-.16-.32-.4-.56-.56l-2.8-2.56c-.96-.88-1.68-2.16-1.84-3.44l-2.88-18.56ZM57.47 79.28C68.75 82.88 85.308 84 96.028 84c10.72 0 27.28-1.12 38.56-4.72-4.56 12.08-12.56 17.44-14.48 28.72-.88 4.88-1.52 11.76-1.04 16.8.32 3.2-2.16 6-5.36 6.32-5.2.56-11.04.88-17.68.88-6.64 0-12.48-.32-17.68-.88-3.2-.32-5.6-3.12-5.36-6.32.48-5.04-.24-11.92-1.04-16.8-1.92-11.28-9.84-16.64-14.48-28.72Z" stroke="#000" stroke-width="8" stroke-linejoin="round"/></svg>
